images_elementary_svg/cmd/32/objectposition.svg

<svg height="32" width="32" xmlns="http://www.w3.org/2000/svg"><path d="m1.522 24.5 27.994.008v-2.992l-27.995-.008z" style="opacity:.5;fill:none;stroke:#000;stroke-linecap:round;stroke-linejoin:round;stroke-opacity:.75"/><path d="m2 23.99 27.014.008v-.99l-27.014-.008z" fill="#fafafa"/><path d="m1.506 19.492 27.994.008v-2.992l-27.995-.008z" style="opacity:.5;fill:none;stroke:#000;stroke-linecap:round;stroke-linejoin:round;stroke-opacity:.75"/><path d="m1.984 18.982 27.014.008v-.99l-27.014-.008z" fill="#fafafa"/><path d="m1.506 14.492 27.994.008v-2.992l-27.995-.008z" style="opacity:.5;fill:none;stroke:#000;stroke-linecap:round;stroke-linejoin:round;stroke-opacity:.75"/><path d="m1.984 13.982 27.014.008v-.99l-27.014-.008z" fill="#fafafa"/><path d="m1.506 9.492 27.994.008v-2.992l-27.995-.008z" style="opacity:.5;fill:none;stroke:#000;stroke-linecap:round;stroke-linejoin:round;stroke-opacity:.75"/><path d="m1.984 8.982 27.014.008v-.99l-27.014-.008z" fill="#fafafa"/></svg>

<?xml version="1.0" encoding="UTF-8" standalone="no"?>
<svg
   xmlns:dc="http://purl.org/dc/elements/1.1/"
   xmlns:cc="http://creativecommons.org/ns#"
   xmlns:rdf="http://www.w3.org/1999/02/22-rdf-syntax-ns#"
   xmlns:svg="http://www.w3.org/2000/svg"
   xmlns="http://www.w3.org/2000/svg"
   xmlns:sodipodi="http://sodipodi.sourceforge.net/DTD/sodipodi-0.dtd"
   xmlns:inkscape="http://www.inkscape.org/namespaces/inkscape"
   height="32"
   width="32"
   version="1.1"
   id="svg54"
   sodipodi:docname="objectposition.svg"
   inkscape:version="0.92.3 (2405546, 2018-03-11)">
  <metadata
     id="metadata60">
    <rdf:RDF>
      <cc:Work
         rdf:about="">
        <dc:format>image/svg+xml</dc:format>
        <dc:type
           rdf:resource="http://purl.org/dc/dcmitype/StillImage" />
        <dc:title></dc:title>
      </cc:Work>
    </rdf:RDF>
  </metadata>
  <defs
     id="defs58" />
  <sodipodi:namedview
     pagecolor="#ffffff"
     bordercolor="#666666"
     borderopacity="1"
     objecttolerance="10"
     gridtolerance="10"
     guidetolerance="10"
     inkscape:pageopacity="0"
     inkscape:pageshadow="2"
     inkscape:window-width="1366"
     inkscape:window-height="696"
     id="namedview56"
     showgrid="true"
     inkscape:zoom="14.75"
     inkscape:cx="17.27845"
     inkscape:cy="14.430053"
     inkscape:window-x="0"
     inkscape:window-y="0"
     inkscape:window-maximized="1"
     inkscape:current-layer="svg54">
    <inkscape:grid
       type="xygrid"
       id="grid867"
       spacingx="0.5"
       spacingy="0.5" />
  </sodipodi:namedview>
  <linearGradient
     id="a"
     gradientTransform="matrix(0.71627,0,0,0.7691,1.397,-29.832)"
     gradientUnits="userSpaceOnUse"
     x1="33.06"
     x2="33.018"
     y1="46.71"
     y2="62.913">
    <stop
       offset="0"
       stop-color="#fff"
       id="stop2" />
    <stop
       offset=".233"
       stop-color="#fff"
       stop-opacity=".235"
       id="stop4" />
    <stop
       offset="1"
       stop-color="#fff"
       stop-opacity=".157"
       id="stop6" />
    <stop
       offset="1"
       stop-color="#fff"
       stop-opacity=".392"
       id="stop8" />
  </linearGradient>
  <linearGradient
     id="b"
     gradientTransform="matrix(0 -1.33333 -1.33333 0 38.55 36.83)"
     gradientUnits="userSpaceOnUse"
     x1="23.176"
     x2="10.566"
     y1="11.581"
     y2="11.979">
    <stop
       offset="0"
       stop-color="#ffa154"
       id="stop11" />
    <stop
       offset="1"
       stop-color="#f37329"
       id="stop13" />
  </linearGradient>
  <radialGradient
     id="c"
     cx="24.837"
     cy="36.421"
     gradientTransform="matrix(-.36797 0 0 .39444 32.308 -2.697)"
     gradientUnits="userSpaceOnUse"
     r="15.645">
    <stop
       offset="0"
       id="stop16" />
    <stop
       offset="1"
       stop-opacity="0"
       id="stop18" />
  </radialGradient>
  <linearGradient
     id="d"
     gradientTransform="matrix(1.86666 0 0 2 .562 14.497)"
     gradientUnits="userSpaceOnUse"
     x1="7.889"
     x2="7.889"
     y1="3.506"
     y2="5.561">
    <stop
       offset="0"
       stop-color="#cd9ef7"
       id="stop21" />
    <stop
       offset="1"
       stop-color="#a56de2"
       id="stop23" />
  </linearGradient>
  <path
     sodipodi:nodetypes="ccccc"
     style="opacity:0.5;fill:none;stroke:#000000;stroke-linecap:round;stroke-linejoin:round;stroke-opacity:0.75"
     inkscape:connector-curvature="0"
     id="path875"
     d="m 1.522,24.5 27.994,0.008 V 21.516 L 1.521,21.508 Z" />
  <path
     sodipodi:nodetypes="ccccc"
     style="fill:#fafafa"
     inkscape:connector-curvature="0"
     id="path877"
     d="m 2,23.99 27.014,0.008 v -0.99 L 2,23 Z" />
  <path
     d="M 1.506,19.492 29.5,19.5 V 16.508 L 1.505,16.5 Z"
     id="path38"
     inkscape:connector-curvature="0"
     style="opacity:0.5;fill:none;stroke:#000000;stroke-linecap:round;stroke-linejoin:round;stroke-opacity:0.75"
     sodipodi:nodetypes="ccccc" />
  <path
     d="M 1.984,18.982 28.998,18.99 V 18 L 1.984,17.992 Z"
     id="path44"
     inkscape:connector-curvature="0"
     style="fill:#fafafa"
     sodipodi:nodetypes="ccccc" />
  <path
     d="M 1.506,14.492 29.5,14.5 V 11.508 L 1.505,11.5 Z"
     style="opacity:0.5;fill:none;stroke:#000000;stroke-linecap:round;stroke-linejoin:round;stroke-opacity:0.75"
     id="path46"
     inkscape:connector-curvature="0"
     sodipodi:nodetypes="ccccc" />
  <path
     d="M 1.984,13.982 28.998,13.99 V 13 L 1.984,12.992 Z"
     id="path48"
     inkscape:connector-curvature="0"
     style="fill:#fafafa"
     sodipodi:nodetypes="ccccc" />
  <path
     d="M 1.506,9.492 29.5,9.5 V 6.508 L 1.505,6.5 Z"
     style="opacity:0.5;fill:none;stroke:#000000;stroke-linecap:round;stroke-linejoin:round;stroke-opacity:0.75"
     id="path50"
     inkscape:connector-curvature="0"
     sodipodi:nodetypes="ccccc" />
  <path
     d="M 1.984,8.982 28.998,8.99 V 8 L 1.984,7.992 Z"
     id="path52"
     inkscape:connector-curvature="0"
     style="fill:#fafafa"
     sodipodi:nodetypes="ccccc" />
</svg>
